X:1
T:The Bird in the Bush
M:4/4
L:1/8
K:G
 D2|G-B AGF-G AB| G6 A2| B2 BAG-A Bc| A4 z2| Bc| d2 dB c2 dB| G2 FE(3D3.99999962500005/5.99999925000009D3.99999962500005/5.99999925000009E3.99999962500005/5.99999925000009D3.99999962500005/5.99999925000009E3.99999962500005/5.99999925000009F3.99999962500005/5.99999925000009 DD|\
G-BA-GF-G AB| G6||

